X: 110
T: Hopa Hey
O: Israel
C: Yigal Bashan 1972
N:Tikva Records T104: Dance for Fun, Ayala Goren, Shai Burstyn, Geula Zohar
M: 2/4
L: 1/8
K: D
Q: 1/4=132
"D"DD2E|GFED|"Em"EEB,2|EEB,2|\
"D"DD2E|GFED|"Bm"B,2"Em"E2|"D"D4|
AA2A|GFED|"Em"EEB,2|EEB,2|\
"D"DD2E|"Em"GFED|B,2E2|"D"D4|:
"A"=c4|"Em"BAGF|E2B2|"A"A4|\
=c4|"Em"BAGF|E4|"D"A4:|



